symbolic/22x22/actions/format-text-direction-vertical.svg

<svg xmlns="http://www.w3.org/2000/svg" width="22" height="22" version="1.1">
 <defs>
  <style id="current-color-scheme" type="text/css">
   .ColorScheme-Text { color:#323a41; } .ColorScheme-Highlight { color:#4285f4; } .ColorScheme-NeutralText { color:#ff9800; } .ColorScheme-PositiveText { color:#4caf50; } .ColorScheme-NegativeText { color:#f44336; }
  </style>
 </defs>
 <g transform="translate(3,3)">
  <path style="fill:currentColor" class="ColorScheme-Text" d="M 10,2 V 11 H 11 V 2 Z M 13,2 V 11 H 14 V 2 Z M 2,10 V 11 H 3 V 10 Z M 5,10 V 11 H 6 V 10 Z M 2,12 4,15 6,12 Z M 10,12 12,15 14,12 Z M 3.5469,2 1,9 H 2 L 2.7285,7 H 5.2715 L 6,9 H 7 L 4.4531,2 Z M 4,3.5 4.9082,6 H 3.0918 Z"/>
 </g>
</svg>

<svg xmlns="http://www.w3.org/2000/svg" width="22" height="22"><defs><style id="current-color-scheme" type="text/css"></style></defs><path style="fill:currentColor;color:#323a41" d="M10 2v9h1V2zm3 0v9h1V2zM2 10v1h1v-1zm3 0v1h1v-1zm-3 2 2 3 2-3zm8 0 2 3 2-3zM3.547 2 1 9h1l.728-2h2.543L6 9h1L4.453 2zM4 3.5 4.908 6H3.092z" transform="translate(3 3)"/></svg>
